X:1
T:Title
%%score { 1 | 2 }
L:1/8
Q:1/4=100
M:6/8
K:C
V:1 treble nm="Grand Piano"
V:2 bass 
V:1
 [EG]2 [EG] [CE][DF][EG] | [FA]2 [FA] [EG]3 | [Ec]>[Fc][Gc] d2 B | [Ec]6 | %4
w: E.~A.~Hoffman * * * *||||
 [EG]2 [EG] [CE][DF][EG] | [FA]2 [FA] [EG]3 | [Ec]>[Fc][Gc] d2 B | [Ec]6 | %8
w: ||||
 [Ge][Ge][Ge] [Ge]2 [Ge] | d6 | ddd d2 d | [Ec]6 | [EG]2 [EG] [CE][DF][EG] | [FA]2 [FA] [EG]3 | %14
w: ||||||
 [Ec]>[Fc][Gc] d2 B | [Ec]6 |] %16
w: ||
V:2
 [C,C]2 [C,C] [C,G,]2 [C,C] | [F,C]2 [F,C] [C,C]3 | [C,C]>[D,C][E,C][K:treble] [F,A,F]2 [G,F] | %3
 [C,G,]6 | [C,C]2 [C,C] [C,G,]2 [C,C] | [F,C]2 [F,C] [C,C]3 | %6
 [C,C]>[D,C][E,C][K:treble] [F,A,F]2 [G,F] | [C,G,]6 | [C,C][C,C][C,C] [C,C]2 [C,C] | [G,B,G]6 | %10
 [G,B,G][G,B,G][G,B,G] [G,B,G]2 [G,B,F] | [C,G,]6 | [C,C]2 [C,C] [C,G,]2 [C,C] | %13
 [F,C]2 [F,C] [C,C]3 | [C,C]>[D,C][E,C][K:treble] [F,A,F]2 [G,F] | [C,G,]6 |] %16

